plasma/desktoptheme/Materia-Color/widgets/switch.svg

<svg xmlns="http://www.w3.org/2000/svg" xmlns:xlink="http://www.w3.org/1999/xlink" width="90" height="55" version="1.0">
 <defs id="materia">
  <radialGradient id="radialGradient4203" cx="-31.636" cy="8.519" r="8.182" fx="-31.636" fy="8.519" gradientTransform="matrix(0,1.588807,-1.0999999,0,20.371134,94.26388)" gradientUnits="userSpaceOnUse" xlink:href="#linearGradient4209"/>
  <linearGradient id="linearGradient4209">
   <stop style="stop-color:#000000" offset="0"/>
   <stop style="stop-color:#000000;stop-opacity:0" offset="1"/>
  </linearGradient>
  <radialGradient id="radialGradient1057" cx="-31.636" cy="8.519" r="8.182" fx="-31.636" fy="8.519" gradientTransform="matrix(0,1.588807,-1.0999999,0,20.371134,94.26388)" gradientUnits="userSpaceOnUse" xlink:href="#linearGradient4209"/>
  <radialGradient id="radialGradient1069" cx="-31.636" cy="8.519" r="8.182" fx="-31.636" fy="8.519" gradientTransform="matrix(0,1.588807,-1.0999999,0,20.371134,94.26388)" gradientUnits="userSpaceOnUse" xlink:href="#linearGradient4209"/>
<style id="current-color-scheme" type="text/css">
   .ColorScheme-Background {color:#181818; } .ColorScheme-ButtonBackground { color:#343434; } .ColorScheme-Highlight { color:#4285f4; } .ColorScheme-Text { color:#dfdfdf; } .ColorScheme-ViewBackground { color:#242424; } .ColorScheme-NegativeText { color:#f44336; } .ColorScheme-PositiveText { color:#4caf50; } .ColorScheme-NeutralText { color:#ff9800; }
  </style>
 </defs>
 <g id="handle" transform="matrix(1.1,0,0,1.1,46.299,35.101)">
  <rect style="opacity:0.001" width="20" height="20" x="-42.09" y="-1.91"/>
  <path style="fill:url(#radialGradient4203)" transform="matrix(0.90909091,0,0,0.90909091,-42.09,-31.000909)" d="M 19.996094,43.251953 A 9.0000002,9.0000002 0 0 1 11,52 9.0000002,9.0000002 0 0 1 2.0039062,43.261719 9.0000002,9.0000002 0 0 0 2,43.5 a 9.0000002,9.0000002 0 0 0 9,9 9.0000002,9.0000002 0 0 0 9,-9 9.0000002,9.0000002 0 0 0 -0.0039,-0.248047 z"/>
  <path style="fill:currentColor" class="ColorScheme-ButtonBackground" transform="matrix(1.0227273,0,0,1.0227273,0.63711821,-0.0918182)" d="m -24,8 a 8,8 0 0 1 -8,8 8,8 0 0 1 -8,-8 8,8 0 0 1 8,-8 8,8 0 0 1 8,8 z"/>
  <path style="opacity:0.05;fill:#ffffff" transform="matrix(0.90909091,0,0,0.90909091,-93.908336,-11.91)" d="m 68,13 a 9.0000002,9.0000002 0 0 0 -9,9 9.0000002,9.0000002 0 0 0 0.0098,0.287109 A 9.0000002,9.0000002 0 0 1 68,13.5 9.0000002,9.0000002 0 0 1 76.990234,22.212891 9.0000002,9.0000002 0 0 0 77,22 9.0000002,9.0000002 0 0 0 68,13 Z"/>
 </g>
 <g id="handle-hover" transform="matrix(1.1,0,0,1.1,68.299,35.101)">
  <rect style="opacity:0.001" width="20" height="20" x="-42.09" y="-1.91"/>
  <path style="fill:url(#radialGradient1057)" transform="matrix(0.90909091,0,0,0.90909091,-42.09,-31.000909)" d="M 19.996094,43.251953 A 9.0000002,9.0000002 0 0 1 11,52 9.0000002,9.0000002 0 0 1 2.0039062,43.261719 9.0000002,9.0000002 0 0 0 2,43.5 a 9.0000002,9.0000002 0 0 0 9,9 9.0000002,9.0000002 0 0 0 9,-9 9.0000002,9.0000002 0 0 0 -0.0039,-0.248047 z"/>
  <path style="fill:currentColor;opacity:0.08" class="ColorScheme-Text" transform="matrix(1.0227273,0,0,1.0227273,0.63711821,-0.0918182)" d="m -24,8 a 8,8 0 0 1 -8,8 8,8 0 0 1 -8,-8 8,8 0 0 1 8,-8 8,8 0 0 1 8,8 z"/>
  <path style="opacity:0.05;fill:#ffffff" transform="matrix(0.90909091,0,0,0.90909091,-93.908336,-11.91)" d="m 68,13 a 9.0000002,9.0000002 0 0 0 -9,9 9.0000002,9.0000002 0 0 0 0.0098,0.287109 A 9.0000002,9.0000002 0 0 1 68,13.5 9.0000002,9.0000002 0 0 1 76.990234,22.212891 9.0000002,9.0000002 0 0 0 77,22 9.0000002,9.0000002 0 0 0 68,13 Z"/>
 </g>
 <g id="handle-focus" transform="matrix(1.1,0,0,1.1,90.299,35.101)">
  <rect style="opacity:0.001" width="20" height="20" x="-42.09" y="-1.91"/>
  <path style="fill:url(#radialGradient1069)" transform="matrix(0.90909091,0,0,0.90909091,-42.09,-31.000909)" d="M 19.996094,43.251953 A 9.0000002,9.0000002 0 0 1 11,52 9.0000002,9.0000002 0 0 1 2.0039062,43.261719 9.0000002,9.0000002 0 0 0 2,43.5 a 9.0000002,9.0000002 0 0 0 9,9 9.0000002,9.0000002 0 0 0 9,-9 9.0000002,9.0000002 0 0 0 -0.0039,-0.248047 z"/>
  <path style="fill:currentColor;opacity:0.16" class="ColorScheme-Text" transform="matrix(1.0227273,0,0,1.0227273,0.63711821,-0.0918182)" d="m -24,8 a 8,8 0 0 1 -8,8 8,8 0 0 1 -8,-8 8,8 0 0 1 8,-8 8,8 0 0 1 8,8 z"/>
  <path style="opacity:0.05;fill:#ffffff" transform="matrix(0.90909091,0,0,0.90909091,-93.908336,-11.91)" d="m 68,13 a 9.0000002,9.0000002 0 0 0 -9,9 9.0000002,9.0000002 0 0 0 0.0098,0.287109 A 9.0000002,9.0000002 0 0 1 68,13.5 9.0000002,9.0000002 0 0 1 76.990234,22.212891 9.0000002,9.0000002 0 0 0 77,22 9.0000002,9.0000002 0 0 0 68,13 Z"/>
 </g>
 <g id="handle-shadow" transform="matrix(1.1,0,0,1.1,112.299,35.101)">
  <rect style="opacity:0.001" width="20" height="20" x="-42.09" y="-1.91"/>
 </g>
 <path id="groove-bottomright" style="opacity:0.3;fill:currentColor" class="ColorScheme-Text" d="M 22,22 V 33 C 33.000001,33 33.000001,22 33.000001,22 Z"/>
 <path id="groove-right" style="opacity:0.3;fill:currentColor" class="ColorScheme-Text" d="M 22,11 V 22 H 33.000001 V 11 Z"/>
 <path id="groove-topright" style="opacity:0.3;fill:currentColor" class="ColorScheme-Text" d="M 22,-3.6716472e-8 V 11 H 33.000001 C 33.000001,-3.6716472e-8 22,-3.6716472e-8 22,-3.6716472e-8 Z"/>
 <path id="groove-bottomleft" style="opacity:0.3;fill:currentColor" class="ColorScheme-Text" d="m 8.3215332e-7,22 c 0,0 0,11 11.00000016784668,11 V 22 Z"/>
 <path id="groove-left" style="opacity:0.3;fill:currentColor" class="ColorScheme-Text" d="M 8.3215332e-7,11 V 22 H 11.000001 V 11 Z"/>
 <path id="groove-topleft" style="opacity:0.3;fill:currentColor" class="ColorScheme-Text" d="m 11.000001,-3.6716472e-8 c 0,0 -11.00000016784668,0 -11.00000016784668,11.000000036716471 H 11.000001 Z"/>
 <path id="groove-bottom" style="opacity:0.3;fill:currentColor" class="ColorScheme-Text" d="M 11.000001,22 V 33 H 22 V 22 Z"/>
 <path id="groove-center" style="opacity:0.3;fill:currentColor" class="ColorScheme-Text" d="M 22,11 H 11.000001 V 22 H 22 Z"/>
 <path id="groove-top" style="opacity:0.3;fill:currentColor" class="ColorScheme-Text" d="M 11.000001,-3.6716472e-8 V 11 H 22 V -3.6716472e-8 Z"/>
 <path id="groove-highlight-bottomright" style="fill:currentColor" class="ColorScheme-Highlight" d="M 54.999998,22 V 33 C 66.000001,33 66.000001,22 66.000001,22 Z"/>
 <path id="groove-highlight-right" style="fill:currentColor" class="ColorScheme-Highlight" d="M 54.999998,11 V 22 H 66.000001 V 11 Z"/>
 <path id="groove-highlight-topright" style="fill:currentColor" class="ColorScheme-Highlight" d="M 54.999998,-3.6716472e-8 V 11 h 11.000003 c 0,0 0,-11.000000036716471 -11.000003,-11.000000036716471 z"/>
 <path id="groove-highlight-bottomleft" style="fill:currentColor" class="ColorScheme-Highlight" d="m 33.000001,22 c 0,0 0,11 10.999999,11 V 22 Z"/>
 <path id="groove-highlight-left" style="fill:currentColor" class="ColorScheme-Highlight" d="M 33.000001,11 V 22 H 44 V 11 Z"/>
 <path id="groove-highlight-topleft" style="fill:currentColor" class="ColorScheme-Highlight" d="M 44,-3.6716472e-8 C 33.000001,-3.6716472e-8 33.000001,11 33.000001,11 H 44 Z"/>
 <path id="groove-highlight-bottom" style="fill:currentColor" class="ColorScheme-Highlight" d="M 44,22 V 33 H 54.999998 V 22 Z"/>
 <path id="groove-highlight-center" style="fill:currentColor" class="ColorScheme-Highlight" d="M 54.999998,11 H 44 v 11 h 10.999998 z"/>
 <path id="groove-highlight-top" style="fill:currentColor" class="ColorScheme-Highlight" d="M 44,-3.6716472e-8 V 11 H 54.999998 V -3.6716472e-8 Z"/>
 <rect style="fill:#ff00ff" id="hint-handle-size" width="24" height="18" x="66" y="15"/>
</svg>

<?xml version="1.0" encoding="UTF-8"?>
<svg width="90" height="55" version="1.0" xmlns="http://www.w3.org/2000/svg" xmlns:xlink="http://www.w3.org/1999/xlink">
 <defs id="materia">
  <radialGradient id="radialGradient4203" cx="-31.636" cy="8.519" r="8.182" gradientTransform="matrix(0 1.5888 -1.1 0 20.371 94.264)" gradientUnits="userSpaceOnUse" xlink:href="#linearGradient4209"/>
  <linearGradient id="linearGradient4209">
   <stop offset="0"/>
   <stop stop-opacity="0" offset="1"/>
  </linearGradient>
  <style id="current-color-scheme" type="text/css">.ColorScheme-Background {color:#181818; } .ColorScheme-ButtonBackground { color:#343434; } .ColorScheme-Highlight { color:#4285f4; } .ColorScheme-Text { color:#dfdfdf; } .ColorScheme-ViewBackground { color:#242424; } .ColorScheme-NegativeText { color:#f44336; } .ColorScheme-PositiveText { color:#4caf50; } .ColorScheme-NeutralText { color:#ff9800; }</style>
 </defs>
 <g id="handle" transform="matrix(1.1,0,0,1.1,46.299,35.101)">
  <rect x="-42.09" y="-1.91" width="20" height="20" opacity=".001"/>
  <path transform="matrix(.90909 0 0 .90909 -42.09 -31.001)" d="m19.996 43.252a9 9 0 0 1-8.9961 8.748 9 9 0 0 1-8.9961-8.7383 9 9 0 0 0-0.0039062 0.23828 9 9 0 0 0 9 9 9 9 0 0 0 9-9 9 9 0 0 0-0.0039-0.24805z" fill="url(#radialGradient4203)"/>
  <path class="ColorScheme-ButtonBackground" transform="matrix(1.0227 0 0 1.0227 .63712 -.091818)" d="m-24 8a8 8 0 0 1-8 8 8 8 0 0 1-8-8 8 8 0 0 1 8-8 8 8 0 0 1 8 8z" fill="currentColor"/>
  <path transform="matrix(.90909 0 0 .90909 -93.908 -11.91)" d="m68 13a9 9 0 0 0-9 9 9 9 0 0 0 0.0098 0.28711 9 9 0 0 1 8.9902-8.7871 9 9 0 0 1 8.9902 8.7129 9 9 0 0 0 0.009766-0.21289 9 9 0 0 0-9-9z" fill="#fff" opacity=".05"/>
 </g>
 <g id="handle-hover" transform="matrix(1.1,0,0,1.1,68.299,35.101)">
  <rect x="-42.09" y="-1.91" width="20" height="20" opacity=".001"/>
  <path transform="matrix(.90909 0 0 .90909 -42.09 -31.001)" d="m19.996 43.252a9 9 0 0 1-8.9961 8.748 9 9 0 0 1-8.9961-8.7383 9 9 0 0 0-0.0039062 0.23828 9 9 0 0 0 9 9 9 9 0 0 0 9-9 9 9 0 0 0-0.0039-0.24805z" fill="url(#radialGradient4203)"/>
  <path class="ColorScheme-Text" transform="matrix(1.0227 0 0 1.0227 .63712 -.091818)" d="m-24 8a8 8 0 0 1-8 8 8 8 0 0 1-8-8 8 8 0 0 1 8-8 8 8 0 0 1 8 8z" fill="currentColor" opacity=".08"/>
  <path transform="matrix(.90909 0 0 .90909 -93.908 -11.91)" d="m68 13a9 9 0 0 0-9 9 9 9 0 0 0 0.0098 0.28711 9 9 0 0 1 8.9902-8.7871 9 9 0 0 1 8.9902 8.7129 9 9 0 0 0 0.009766-0.21289 9 9 0 0 0-9-9z" fill="#fff" opacity=".05"/>
 </g>
 <g id="handle-focus" transform="matrix(1.1,0,0,1.1,90.299,35.101)">
  <rect x="-42.09" y="-1.91" width="20" height="20" opacity=".001"/>
  <path transform="matrix(.90909 0 0 .90909 -42.09 -31.001)" d="m19.996 43.252a9 9 0 0 1-8.9961 8.748 9 9 0 0 1-8.9961-8.7383 9 9 0 0 0-0.0039062 0.23828 9 9 0 0 0 9 9 9 9 0 0 0 9-9 9 9 0 0 0-0.0039-0.24805z" fill="url(#radialGradient4203)"/>
  <path class="ColorScheme-Text" transform="matrix(1.0227 0 0 1.0227 .63712 -.091818)" d="m-24 8a8 8 0 0 1-8 8 8 8 0 0 1-8-8 8 8 0 0 1 8-8 8 8 0 0 1 8 8z" fill="currentColor" opacity=".16"/>
  <path transform="matrix(.90909 0 0 .90909 -93.908 -11.91)" d="m68 13a9 9 0 0 0-9 9 9 9 0 0 0 0.0098 0.28711 9 9 0 0 1 8.9902-8.7871 9 9 0 0 1 8.9902 8.7129 9 9 0 0 0 0.009766-0.21289 9 9 0 0 0-9-9z" fill="#fff" opacity=".05"/>
 </g>
 <g id="handle-shadow" transform="matrix(1.1 0 0 1.1 112.3 35.101)">
  <rect x="-42.09" y="-1.91" width="20" height="20" opacity=".001"/>
 </g>
 <path id="groove-bottomright" class="ColorScheme-Text" d="m22 22v11c11 0 11-11 11-11z" fill="currentColor" opacity=".3"/>
 <path id="groove-right" class="ColorScheme-Text" d="m22 11v11h11v-11z" fill="currentColor" opacity=".3"/>
 <path id="groove-topright" class="ColorScheme-Text" d="m22-3.6716e-8v11h11c0-11-11-11-11-11z" fill="currentColor" opacity=".3"/>
 <path id="groove-bottomleft" class="ColorScheme-Text" d="m8.3215e-7 22s0 11 11 11v-11z" fill="currentColor" opacity=".3"/>
 <path id="groove-left" class="ColorScheme-Text" d="m8.3215e-7 11v11h11v-11z" fill="currentColor" opacity=".3"/>
 <path id="groove-topleft" class="ColorScheme-Text" d="m11-3.6716e-8s-11 0-11 11h11z" fill="currentColor" opacity=".3"/>
 <path id="groove-bottom" class="ColorScheme-Text" d="m11 22v11h11v-11z" fill="currentColor" opacity=".3"/>
 <path id="groove-center" class="ColorScheme-Text" d="m22 11h-11v11h11z" fill="currentColor" opacity=".3"/>
 <path id="groove-top" class="ColorScheme-Text" d="m11-3.6716e-8v11h11v-11z" fill="currentColor" opacity=".3"/>
 <path id="groove-highlight-bottomright" class="ColorScheme-Highlight" d="m55 22v11c11 0 11-11 11-11z" fill="currentColor"/>
 <path id="groove-highlight-right" class="ColorScheme-Highlight" d="m55 11v11h11v-11z" fill="currentColor"/>
 <path id="groove-highlight-topright" class="ColorScheme-Highlight" d="m55-3.6716e-8v11h11s0-11-11-11z" fill="currentColor"/>
 <path id="groove-highlight-bottomleft" class="ColorScheme-Highlight" d="m33 22s0 11 11 11v-11z" fill="currentColor"/>
 <path id="groove-highlight-left" class="ColorScheme-Highlight" d="m33 11v11h11v-11z" fill="currentColor"/>
 <path id="groove-highlight-topleft" class="ColorScheme-Highlight" d="m44-3.6716e-8c-11 0-11 11-11 11h11z" fill="currentColor"/>
 <path id="groove-highlight-bottom" class="ColorScheme-Highlight" d="m44 22v11h11v-11z" fill="currentColor"/>
 <path id="groove-highlight-center" class="ColorScheme-Highlight" d="m55 11h-11v11h11z" fill="currentColor"/>
 <path id="groove-highlight-top" class="ColorScheme-Highlight" d="m44-3.6716e-8v11h11v-11z" fill="currentColor"/>
 <rect id="hint-handle-size" x="66" y="15" width="24" height="18" fill="#f0f"/>
</svg>
